X:1
T:Miss Barbara Hay's Favorite
T:Miss Barbara Hay's Favorite
T:Robert Mackintosh
C:Robert Mackintosh
L:1/8
M:6/8
K:G
V:1 treble 
V:1
|:"G" G3 (Tgfg) | d3 GAB |"C" Tc2 B"A7" A2 G |"D" (TFEF) D3 |"G" G3 (Tgfg) | d3"A7" gab | %6
"D" agf"A7" ed^c |"D" [FAd]3 D3 ::"G" (B/c/dB) gdB |"D7" c2 a- acA |"G" (B/c/d)B (G/A/B)G | %11
"C" EFG"D" AFD |"G" (B/c/dB) gdB |"D7" c2 a- acA |"G" Bcd cBA |"D" [B,DG]3"G" [B,DG]2 :| d/c/ | %17
"G" Bcd"C" ecB |"D" ABc"Bm" dBA |"Em" GAB"C" EFG |"A7" ABG"D" FED |"G" Bgd"C" ecB | %22
"D" ABc"Bm" dBG |"C" EcB"D" AGF |"G" [B,DG]3 B,2 c |"G" Bcd"C" ecB |"D" ABc"Bm" dBA | %27
"Em" GAB"A7" EFG |"D" AGF"D7" EFD |"G" (TGFG)"D" AGA |"G" BAB"C" cde |"G" dBG"Bm" AFD | %32
"G" [B,DG]3 G,2 |] %33

